public/assets/img/icon-nav-ev.svg

<svg xmlns="http://www.w3.org/2000/svg" xmlns:xlink="http://www.w3.org/1999/xlink" width="112" height="88" version="1.0" viewBox="0 0 84 66">
  <defs>
    <clipPath id="a">
      <path d="M.359375 0h83.25v52h-83.25Zm0 0"/>
    </clipPath>
  </defs>
  <use xlink:href="#reuse-0"/>
  <use xlink:href="#reuse-0"/>
  <use xlink:href="#reuse-0"/>
  <g clip-path="url(#a)">
    <path fill="#fff" d="M77.84375 0h-3.296875l-17.5 2.152344c-2.871094.285156-5.023437 2.871094-5.023437 5.738281v.71875h-5.734376c0-3.15625-2.582031-5.738281-5.738281-5.738281H6.125c-3.15625 0-5.738281 2.582031-5.738281 5.738281v34.433594c0 3.15625 2.582031 5.738281 5.738281 5.738281h9.609375c0-.574219.144531-1.144531.289063-1.71875l.859374-2.585938H7.558594c-1.578125 0-2.867188-1.289062-2.867188-2.867187V10.042969c0-1.578125 1.289063-2.867188 2.867188-2.867188h31.558594c1.578124 0 2.867187 1.289063 2.867187 2.867188v1.433593h17.785156c2.007813-3.585937 4.878907-5.738281 8.035157-5.738281 4.589843 0 8.460937 4.59375 10.328124 11.335938-1.007812-3.300781-4.019531-5.597657-7.460937-5.597657-1.003906 0-1.863281.289063-2.867187.71875.859374.429688 1.578124 1.148438 2.007812 2.152344h.859375c3.15625 0 5.738281 2.582032 5.738281 5.738282v11.480468c0 3.15625-2.582031 5.738282-5.738281 5.738282h-.71875c-.429687.859374-1.144531 1.578124-2.007813 2.152343.863282.574219 1.867188.71875 2.871094.71875 1.71875 0 3.441406-.574219 4.734375-1.582031 1.289063-1.003906 2.292969-2.4375 2.722657-4.015625-1.863282 6.742187-5.738282 11.335937-10.328126 11.335937-3.152343 0-6.023437-2.152343-8.03125-5.738281h-14.34375c-1.289062 0-2.4375.285157-3.441406.714844v.71875c0 1.578125-1.292968 2.867187-2.871094 2.867187h-1.144531c-.144531.289063-.433593.71875-.574219 1.148438l-1.292968 3.15625h4.304687c3.15625 0 5.738281-2.582031 5.738281-5.738281h5.734376v.71875c0 2.867187 2.152343 5.308593 5.023437 5.738281L74.6875 51.652344h3.15625c3.15625 0 5.738281-2.582032 5.738281-5.738282V5.738281C83.582031 2.582031 81 0 77.84375 0Zm0 0"/>
  </g>
  <path fill="#fff" d="M21.042969 54.523438 17.601562 66h7.171876l3.441406-11.476562h-7.171875ZM45.425781 37.304688h19.507813c1.578125 0 2.871094-1.292969 2.871094-2.871094h2.867187c1.578125 0 2.867187-1.289063 2.867187-2.867188V20.085938c0-1.578126-1.289062-2.867188-2.867187-2.867188h-2.867187c0-1.578125-1.292969-2.871094-2.871094-2.871094h-23.09375c-7.601563 0-14.199219 4.878906-16.492188 12.195313l-6.601562 21.378906c-.570313 1.863281.863281 3.730469 2.726562 3.730469H29.9375c1.144531 0 2.292969-.71875 2.722656-1.867188l2.152344-5.308594c1.722656-4.300781 5.882812-7.171874 10.613281-7.171874Zm-.285156-12.339844 4.304687-5.738282c.429688-.574218 1.433594-.71875 2.007813-.289062.570313.433594.714844 1.4375.285156 2.011719l-2.582031 3.441406h2.867188c.574218 0 1.007812.289063 1.292968.863281.285156.570313.144532 1.003906-.144531 1.433594l-4.300781 5.738281c-.289063.429688-.71875.574219-1.148438.574219-.289062 0-.574218-.144531-.859375-.285156-.574219-.433594-.71875-1.4375-.289062-2.011719l2.582031-3.441406h-2.867188c-.574218 0-1.003906-.289063-1.292968-.863281-.285156-.574219-.144532-1.003907.144531-1.433594Zm0 0"/>
</svg>

<svg xmlns="http://www.w3.org/2000/svg" xmlns:xlink="http://www.w3.org/1999/xlink" width="112" height="88" version="1.0" viewBox="0 0 84 66">
  <!-- <path fill="#fff" d="M 77.844 0 L 74.547 0 L 57.047 2.152 C 54.176 2.438 52.023 5.023 52.023 7.891 L 52.023 8.609 L 59.77 11.477 C 61.777 7.891 64.648 5.738 67.805 5.738 C 72.395 5.738 76.266 10.332 78.133 17.074 C 77.125 13.773 74.113 11.477 70.672 11.477 C 69.668 11.477 68.809 11.766 67.805 12.195 C 68.664 12.625 69.383 13.344 69.813 14.348 L 70.672 14.348 C 73.828 14.348 76.41 16.93 76.41 20.086 L 76.41 31.566 C 76.41 34.723 73.828 37.305 70.672 37.305 L 69.953 37.305 C 69.523 38.164 68.809 38.883 67.945 39.457 C 68.809 40.031 69.813 40.176 70.816 40.176 C 72.535 40.176 74.258 39.602 75.551 38.594 C 76.84 37.59 77.844 36.156 78.273 34.578 C 76.41 41.32 72.535 45.914 67.945 45.914 C 64.793 45.914 61.922 43.762 59.914 40.176 L 52.023 43.043 L 52.023 43.762 C 52.023 46.629 54.176 49.07 57.047 49.5 L 74.688 51.652 L 77.844 51.652 C 81 51.652 83.582 49.07 83.582 45.914 L 83.582 5.738 C 83.582 2.582 81 0 77.844 0 Z M 77.844 0"></path> -->
  <path fill="#fff" d="M 77.844 0 L 74.547 0 L 57.047 2.152 C 54.176 2.438 52.023 5.023 52.023 7.891 L 52.023 8.609 L 59.77 11.477 C 61.777 7.891 64.648 5.738 67.805 5.738 C 72.395 5.738 76.266 10.332 78.133 17.074 C 80.247 24.774 77.844 36.156 78.273 34.578 C 76.41 41.32 72.535 45.914 67.945 45.914 C 64.793 45.914 61.922 43.762 59.914 40.176 L 52.023 43.043 L 52.023 43.762 C 52.023 46.629 54.176 49.07 57.047 49.5 L 74.688 51.652 L 77.844 51.652 C 81 51.652 83.582 49.07 83.582 45.914 L 83.582 5.738 C 83.582 2.582 81 0 77.844 0 Z M 77.844 0"></path>
  <path fill="#fff" d="M 21.043 54.523 L 17.602 66 L 24.773 66 L 28.215 54.523 L 21.043 54.523 Z M 45.426 37.305 L 64.934 37.305 C 66.512 37.305 67.805 36.012 67.805 34.434 L 70.672 34.434 C 72.25 34.434 73.539 33.145 73.539 31.566 L 73.539 20.086 C 73.539 18.508 72.25 17.219 70.672 17.219 L 67.805 17.219 C 67.805 15.641 66.512 14.348 64.934 14.348 L 41.84 14.348 C 34.238 14.348 27.641 19.227 25.348 26.543 L 18.746 47.922 C 18.176 49.785 19.609 51.652 21.473 51.652 L 29.938 51.652 C 31.082 51.652 32.23 50.934 32.66 49.785 L 34.813 44.477 C 36.535 40.176 40.695 37.305 45.426 37.305 Z"></path>
</svg>
